dhis-2/dhis-support/dhis-support-system/src/main/resources/SVGs/blood_pressure_positive.svg

<svg width="48" height="48" viewBox="0 0 48 48" fill="none" xmlns="http://www.w3.org/2000/svg">
<path d="M14.5658 4C8.68481 3.9998 3.91797 8.76684 3.91797 14.6479C3.92557 17.5868 5.13935 20.3258 7.02923 23.0798H15.1428C17.4258 19.8298 20.8758 11.1069 21.2928 10.5659C21.2928 10.5659 25.1487 23.9187 26.1837 28.3707L30.3826 21.6948H35.0366C36.7576 21.7648 36.6946 24.2417 35.0366 24.2297H31.6226C29.3597 27.6397 29.1477 28.2097 25.5157 33.3116L21.0408 16.9668L16.7068 25.6167H8.94721C9.2119 25.9437 9.5031 26.2757 9.7811 26.6047C9.5701 26.6857 9.3631 26.7747 9.1601 26.8707C8.54991 27.1597 7.97852 27.5107 7.45302 27.9237C7.10793 28.1947 6.78423 28.4887 6.48234 28.8067C6.46934 28.8197 6.45624 28.8337 6.44334 28.8477C6.15384 29.1557 5.88464 29.4827 5.64055 29.8297C5.63165 29.8427 5.62205 29.8547 5.61325 29.8667C5.53395 29.9807 5.46075 30.0987 5.38665 30.2167C5.31855 30.3247 5.25105 30.4317 5.18745 30.5427C5.12745 30.6477 5.06945 30.7537 5.01366 30.8607C4.93826 31.0057 4.86836 31.1537 4.80076 31.3027C4.76076 31.3907 4.71876 31.4777 4.68156 31.5677C4.58406 31.8037 4.49546 32.0416 4.41796 32.2866C4.39866 32.3476 4.38516 32.4106 4.36716 32.4726C4.30826 32.6736 4.25586 32.8766 4.21086 33.0836C4.19397 33.1616 4.17887 33.2396 4.16407 33.3176C4.12507 33.5236 4.09307 33.7306 4.06837 33.9406C4.06007 34.0116 4.04957 34.0806 4.04297 34.1516C4.01677 34.4316 3.99997 34.7136 3.99997 34.9996C3.99997 35.3106 4.01607 35.6166 4.04687 35.9196C4.04687 35.9206 4.04677 35.9206 4.04687 35.9216C4.10837 36.5256 4.22917 37.1126 4.40426 37.6756C4.40446 37.6756 4.40406 37.6766 4.40426 37.6776C4.57946 38.2406 4.80906 38.7786 5.08585 39.2886C5.08615 39.2896 5.08565 39.2906 5.08585 39.2906C5.22425 39.5456 5.37565 39.7915 5.53705 40.0305C5.53735 40.0315 5.53675 40.0326 5.53705 40.0326C5.69855 40.2715 5.87154 40.5025 6.05464 40.7245C6.05494 40.7245 6.05434 40.7255 6.05464 40.7265C6.23774 40.9475 6.43344 41.1595 6.63663 41.3625C6.84053 41.5665 7.05273 41.7615 7.27533 41.9445C7.49752 42.1285 7.72922 42.3005 7.96872 42.4625C8.20812 42.6245 8.45381 42.7755 8.70891 42.9135C9.2194 43.1915 9.7599 43.4195 10.3239 43.5955C11.1699 43.8585 12.0679 43.9995 12.9999 43.9995C13.8108 43.9985 14.6058 43.8895 15.3668 43.6815C15.3678 43.6805 15.3688 43.6815 15.3688 43.6815C16.1288 43.4735 16.8558 43.1655 17.5308 42.7705C17.7388 42.6495 17.9328 42.5065 18.1308 42.3685C18.2548 42.2825 18.3858 42.2075 18.5058 42.1145C18.5068 42.1135 18.5078 42.1115 18.5098 42.1105C18.5888 42.0495 18.6578 41.9755 18.7338 41.9115C18.9578 41.7255 19.1828 41.5395 19.3888 41.3315C19.9438 40.7705 20.4288 40.1325 20.8278 39.4276C21.9207 40.8815 22.9767 42.3915 23.9407 43.9995C31.4546 31.5507 44.0885 24.0017 44.0935 14.6479C44.0935 8.76684 39.3245 4 33.4426 4C29.4746 4.0038 25.8387 6.21257 24.0077 9.73233C22.1747 6.21127 18.5358 4.0023 14.5658 4ZM12.9999 27.7517C17.0038 27.7517 20.2498 30.9977 20.2498 35.0016C20.2498 39.0056 17.0038 42.2515 12.9999 42.2515C8.9958 42.2515 5.74995 39.0056 5.74995 35.0016C5.74995 30.9977 8.9958 27.7517 12.9999 27.7517ZM12.9999 29.1267C9.7552 29.1267 7.12493 31.7567 7.12493 35.0016H8.49991C8.49991 32.5166 10.5149 30.5017 12.9999 30.5017C15.4848 30.5017 17.4998 32.5166 17.4998 35.0016H18.8748C18.8748 31.7567 16.2448 29.1267 12.9999 29.1267ZM9.7519 32.0716L11.6799 36.4196C11.4609 36.7066 11.3429 37.0566 11.3419 37.4176C11.3419 38.3326 12.0849 39.0746 12.9999 39.0736C13.9148 39.0746 14.6578 38.3326 14.6578 37.4176C14.6588 36.5016 13.9158 35.7586 12.9999 35.7596C12.9019 35.7596 12.8039 35.7656 12.7069 35.7846L9.7519 32.0716Z" fill="#333333"/>
</svg>

<?xml version="1.0" encoding="UTF-8" standalone="no"?>
<!-- Created with Inkscape (http://www.inkscape.org/) -->
<svg id="svg8" xmlns:rdf="http://www.w3.org/1999/02/22-rdf-syntax-ns#" xmlns="http://www.w3.org/2000/svg" xmlns:osb="http://www.openswatchbook.org/uri/2009/osb" height="48" width="48" version="1.1" xmlns:cc="http://creativecommons.org/ns#" viewBox="0 0 12.7 12.7" xmlns:dc="http://purl.org/dc/elements/1.1/">
 <title id="title4753">UIO-icon</title>
 <metadata id="metadata5">
  <rdf:RDF>
   <cc:Work rdf:about="">
    <dc:format>image/svg+xml</dc:format>
    <dc:type rdf:resource="http://purl.org/dc/dcmitype/StillImage"/>
    <dc:title>UIO-icon</dc:title>
    <dc:creator>
     <cc:Agent>
      <dc:title>Joaquín Urbano</dc:title>
     </cc:Agent>
    </dc:creator>
    <dc:rights>
     <cc:Agent>
      <dc:title>GPL</dc:title>
     </cc:Agent>
    </dc:rights>
   </cc:Work>
  </rdf:RDF>
 </metadata>
 <g id="layer1" transform="translate(0,-284.3)">
  <path id="path827" d="m14.566 4c-5.8811-0.0002-10.648 4.7669-10.648 10.648 0.0076 2.939 1.2214 5.678 3.1113 8.432h8.1137c2.283-3.25 5.733-11.973 6.15-12.514 0 0 3.856 13.353 4.891 17.805l4.199-6.676h4.654c1.721 0.07 1.658 2.547 0 2.535h-3.414c-2.263 3.41-2.475 3.98-6.107 9.082l-4.475-16.345-4.334 8.65h-7.7597c0.2647 0.327 0.5559 0.659 0.8339 0.988-0.211 0.081-0.418 0.17-0.621 0.266-0.6102 0.289-1.1816 0.64-1.7071 1.053-0.3451 0.271-0.6688 0.565-0.9707 0.883-0.013 0.013-0.0261 0.027-0.039 0.041-0.2895 0.308-0.5587 0.635-0.8028 0.982-0.0089 0.013-0.0185 0.025-0.0273 0.037-0.0793 0.114-0.1525 0.232-0.2266 0.35-0.0681 0.108-0.1356 0.215-0.1992 0.326-0.06 0.105-0.118 0.211-0.1738 0.318-0.0754 0.145-0.1453 0.293-0.2129 0.442-0.04 0.088-0.082 0.175-0.1192 0.265-0.0975 0.236-0.1861 0.474-0.2636 0.719-0.0193 0.061-0.0328 0.124-0.0508 0.186-0.0589 0.201-0.1113 0.404-0.1563 0.611-0.0169 0.078-0.032 0.156-0.0468 0.234-0.039 0.206-0.071 0.413-0.0957 0.623-0.0083 0.071-0.0188 0.14-0.0254 0.211-0.0262 0.28-0.043 0.562-0.043 0.848 0 0.311 0.0161 0.617 0.0469 0.92 0 0.001-0.0001 0.001 0 0.002 0.0615 0.604 0.1823 1.191 0.3574 1.754 0.0002 0-0.0002 0.001 0 0.002 0.1752 0.563 0.4048 1.101 0.6816 1.611 0.0003 0.001-0.0002 0.002 0 0.002 0.1384 0.255 0.2898 0.501 0.4512 0.74 0.0003 0.001-0.0003 0.002 0 0.002 0.1615 0.239 0.3345 0.47 0.5176 0.692 0.0003 0-0.0003 0.001 0 0.002 0.1831 0.221 0.3788 0.433 0.582 0.636 0.2039 0.204 0.4161 0.399 0.6387 0.582 0.2222 0.184 0.4539 0.356 0.6934 0.518 0.2394 0.162 0.4851 0.313 0.7402 0.451 0.5105 0.278 1.051 0.506 1.615 0.682 0.846 0.263 1.744 0.404 2.676 0.404 0.811-0.001 1.606-0.11 2.367-0.318 0.001-0.001 0.002 0 0.002 0 0.76-0.208 1.487-0.516 2.162-0.911 0.208-0.121 0.402-0.264 0.6-0.402 0.124-0.086 0.255-0.161 0.375-0.254 0.001-0.001 0.002-0.003 0.004-0.004 0.079-0.061 0.148-0.135 0.224-0.199 0.224-0.186 0.449-0.372 0.655-0.58 0.555-0.561 1.04-1.199 1.439-1.904 1.093 1.454 2.149 2.964 3.113 4.572 7.514-12.449 20.148-19.998 20.153-29.352 0-5.8811-4.769-10.648-10.651-10.648-3.968 0.0038-7.604 2.2126-9.435 5.7324-1.833-3.5211-5.472-5.7301-9.442-5.7324zm-1.566 23.752c4.004 0 7.25 3.246 7.25 7.25s-3.246 7.25-7.25 7.25c-4.0041 0-7.25-3.246-7.25-7.25s3.2459-7.25 7.25-7.25zm0 1.375c-3.2447 0-5.875 2.63-5.875 5.875h1.375c0-2.485 2.015-4.5 4.5-4.5s4.5 2.015 4.5 4.5h1.375c0-3.245-2.63-5.875-5.875-5.875zm-3.248 2.945l1.928 4.348c-0.219 0.287-0.337 0.637-0.338 0.998 0 0.915 0.743 1.657 1.658 1.656 0.915 0.001 1.658-0.741 1.658-1.656 0.001-0.916-0.742-1.659-1.658-1.658-0.098 0-0.196 0.006-0.293 0.025l-2.955-3.713z" transform="matrix(.26458 0 0 .26458 0 284.3)" fill="#333"/>
 </g>
</svg>
